X:15
T:Leo Murray's Musetta
S:American Veteran Fifer, #15
C:Arr. by A.F. Hopkins, Co. A. 154th O.V.I.
M:6/8
L:1/8
Q:1/8=300
K:D 
%%MIDI program 72
%%MIDI transpose 8
%%MIDI ratio 3 1
|: e | (ea)a (eg)g | (ea)a ged | (ea)a geg | ece ged |
(ea)a (eg)g | (ea)e aga | gec ded | cAA A2 :|
|: A | ABe g3 | ede a3 | (ga)b age | (ga)g edB |
ABe g3 | ede a3 | gec (de)d | cAA A2 :|


